X: 1
T:Crossing the Minch
M:C|
L:1/8
Q:80
C:P.M. Donald MacLeod
S:Hornpipe
K:HP
{g}A3/4d/4|
{gfg}fA/4{gAGAG}A3/4{gfg}f{g}e3/4f/4|
{a}gB/4{gBGdG}B3/4{gf}ga3/4g/4|  !
{gfg}fA/4{gAGAG}A3/4{gfg}f{g}e3/4f/4|
{a}g3/4B/4{gef}e3/4d/4{gde}d3/4c/4d3/4e/4{gfg}fA/4{gAGAG}A3/4{gfg}f{g}e3
/4f/4|
{a}gB/4{gBGdG}B3/4{gf}ga3/4g/4|  !
{a}f3/4g/4a3/4f/4{a}g3/4e/4{g}c3/4d/4|
{gef}ed{gdc}d:|
{g}A3/4d/4|  !
{gfg}fA/4{gAGAG}A3/4{g}f3/4g/4a3/4f/4|
{a}gB/4{gBGdG}B3/4{a}g3/4a/4{g}a3/4g/4|
{afg}fA/4{gAGAG}A3/4{g}f3/4g/4a3/4f/4|  !
{a}g3/4B/4{gef}e3/4d/4{gde}d3/4c/4d3/4e/4{gfg}fA/4{gAGAG}A3/4{gfg}f{g}e3
/4f/4|
{a}gB/4{gBGdG}B3/4{gf}ga3/4g/4|
{a}f3/4g/4a3/4f/4{a}g3/4e/4{g}c3/4d/4|  !
{gef}ed{gdc}d:|
{g}A3/4d/4|
{gfg}fA/4{gAGAG}A3/4{gfg}f3/4A/4{g}e3/4f/4|  !
{a}gB/4{gBGdG}B3/4{a}g3/4B/4a3/4g/4|
{gfg}fA/4{gAGAG}A3/4{gfg}f3/4A/4{g}e3/4f/4|
{a}g3/4B/4{gef}e3/4d/4{gde}d3/4c/4d3/4e/4{gfg}fA/4{gAGAG}A3/4{gfg}f3/4A/
4{g}e3/4f/4|  !
{a}gB/4{gBGdG}B3/4{gf}ga3/4g/4|
{a}f3/4g/4a3/4f/4{a}g3/4e/4{g}c3/4d/4|
{gef}ed{gdc}d:|  !
{g}A3/4d/4|
{g}fA/4{gAGAG}A3/4{g}fA/4{gAGAG}A3/4|
{a}gA/4{gAGAG}A3/4{a}gA/4{gAGAG}A3/4|  !
{g}fA/4{gAGAG}A3/4{g}fA/4{gAGAG}A3/4|
{g}e3/4f/4{gef}e3/4d/4{gde}d3/4c/4d3/4e/4{g}fA/4{gAGAG}A3/4{g}fA/4{gAGAG
}A3/4|
{a}gB/4{gBGdG}B3/4{gf}ga3/4g/4|  !
{a}f3/4g/4a3/4f/4{a}g3/4e/4{g}c3/4d/4|
{gef}ed{gdc}d:|
